polaris-icons/icons/newicons/ProductsMajor.svg

<svg width="20" height="20" viewBox="0 0 20 20" fill="none" xmlns="http://www.w3.org/2000/svg">
<path d="M13 8C13.5523 8 14 7.55228 14 7C14 6.44772 13.5523 6 13 6C12.4477 6 12 6.44772 12 7C12 7.55228 12.4477 8 13 8Z" fill="black"/>
<path fill-rule="evenodd" clip-rule="evenodd" d="M11.2426 3C10.2481 3 9.29425 3.39509 8.59099 4.09835L3.63389 9.05546C2.55994 10.1294 2.55994 11.8706 3.63389 12.9445L7.23224 16.5429C8.20855 17.5192 9.79146 17.5192 10.7678 16.5429L16.0481 11.2626C16.6576 10.6531 17 9.82642 17 8.96447V6.25C17 4.45507 15.5449 3 13.75 3H11.2426ZM9.65165 5.15901C10.0736 4.73705 10.6459 4.5 11.2426 4.5H13.75C14.7165 4.5 15.5 5.2835 15.5 6.25V8.96447C15.5 9.4286 15.3156 9.87371 14.9874 10.2019L9.70711 15.4822C9.31659 15.8728 8.68342 15.8728 8.2929 15.4822L4.69455 11.8839C4.20639 11.3957 4.20639 10.6043 4.69455 10.1161L9.65165 5.15901Z" fill="black"/>
</svg>

<svg viewBox="0 0 20 20" fill="none" xmlns="http://www.w3.org/2000/svg"><path d="M13 8a1 1 0 1 0 0-2 1 1 0 0 0 0 2Z" fill="#5C5F62"/><path fill-rule="evenodd" clip-rule="evenodd" d="M11.243 3a3.75 3.75 0 0 0-2.652 1.098l-4.957 4.957a2.75 2.75 0 0 0 0 3.89l3.598 3.598a2.5 2.5 0 0 0 3.536 0l5.28-5.28a3.25 3.25 0 0 0 .952-2.299v-2.714a3.25 3.25 0 0 0-3.25-3.25h-2.507Zm-1.591 2.159a2.25 2.25 0 0 1 1.59-.659h2.508c.966 0 1.75.784 1.75 1.75v2.714c0 .465-.184.91-.513 1.238l-5.28 5.28a1 1 0 0 1-1.414 0l-3.598-3.598a1.25 1.25 0 0 1 0-1.768l4.957-4.957Z" fill="#5C5F62"/></svg>
